data/icons/hicolor/symbolic/apps/org.gnome.Calendar-symbolic.svg

<?xml version="1.0" encoding="UTF-8"?>
<svg version="1.1" viewBox="0 0 16 16" xmlns="http://www.w3.org/2000/svg"><path d="m4 10h2v2h-2zm6 0h2v2h-2zm-3 0h2v2h-2zm3-3h2v2h-2zm-3 0h2v2h-2zm-3.285-6a2.73 2.73 0 0 0-2.715 2.715v8.57a2.73 2.73 0 0 0 2.715 2.715h8.57a2.73 2.73 0 0 0 2.715-2.715v-8.57a2.73 2.73 0 0 0-2.715-2.715zm-0.715 5h10v6.285c0 0.414-0.3 0.715-0.715 0.715h-8.57a0.692 0.692 0 0 1-0.715-0.715z" fill="#241f31"/></svg>

<svg xmlns="http://www.w3.org/2000/svg" xmlns:xlink="http://www.w3.org/1999/xlink" width="16" height="16"><defs><filter id="a" filterUnits="objectBoundingBox" x="0%" y="0%" width="100%" height="100%"><feColorMatrix in="SourceGraphic" values="0 0 0 0 1 0 0 0 0 1 0 0 0 0 1 0 0 0 1 0"/></filter><mask id="d"><g filter="url(#a)"><path fill-opacity=".542" d="M0 0h16v16H0z"/></g></mask><clipPath id="b"><path d="M0 0h192v152H0z"/></clipPath><g id="c" clip-path="url(#b)" fill="#c0bfbc"><path d="M28 120c0 2.21-1.79 4-4 4s-4-1.79-4-4 1.79-4 4-4 4 1.79 4 4zm0 0M44 120c0 2.21-1.79 4-4 4s-4-1.79-4-4 1.79-4 4-4 4 1.79 4 4zm0 0M60 120c0 2.21-1.79 4-4 4s-4-1.79-4-4 1.79-4 4-4 4 1.79 4 4zm0 0M28 97c0 2.21-1.79 4-4 4s-4-1.79-4-4 1.79-4 4-4 4 1.79 4 4zm0 0M44 97c0 2.21-1.79 4-4 4s-4-1.79-4-4 1.79-4 4-4 4 1.79 4 4zm0 0M60 97c0 2.21-1.79 4-4 4s-4-1.79-4-4 1.79-4 4-4 4 1.79 4 4zm0 0M76 97c0 2.21-1.79 4-4 4s-4-1.79-4-4 1.79-4 4-4 4 1.79 4 4zm0 0M92 97c0 2.21-1.79 4-4 4s-4-1.79-4-4 1.79-4 4-4 4 1.79 4 4zm0 0M108 97c0 2.21-1.79 4-4 4s-4-1.79-4-4 1.79-4 4-4 4 1.79 4 4zm0 0M44 74c0 2.21-1.79 4-4 4s-4-1.79-4-4 1.79-4 4-4 4 1.79 4 4zm0 0M60 74c0 2.21-1.79 4-4 4s-4-1.79-4-4 1.79-4 4-4 4 1.79 4 4zm0 0M76 74c0 2.21-1.79 4-4 4s-4-1.79-4-4 1.79-4 4-4 4 1.79 4 4zm0 0M92 74c0 2.21-1.79 4-4 4s-4-1.79-4-4 1.79-4 4-4 4 1.79 4 4zm0 0M108 74c0 2.21-1.79 4-4 4s-4-1.79-4-4 1.79-4 4-4 4 1.79 4 4zm0 0"/></g></defs><use xlink:href="#c" transform="translate(-160 -24)" mask="url(#d)"/><path d="M4 10h2v2H4zm6 0h2v2h-2zm-3 0h2v2H7zm3-3h2v2h-2zM7 7h2v2H7zM3.715 1A2.73 2.73 0 0 0 1 3.715v8.57A2.73 2.73 0 0 0 3.715 15h8.57A2.73 2.73 0 0 0 15 12.285v-8.57A2.73 2.73 0 0 0 12.285 1zM3 6h10v6.285c0 .414-.3.715-.715.715h-8.57A.692.692 0 0 1 3 12.285zm0 0" fill="#241f31"/></svg>
